dist/img/icons/dss.svg

<svg width="69" height="39" viewBox="0 0 69 39" fill="none" xmlns="http://www.w3.org/2000/svg">
<path d="M45.4682 20.8421L46.1341 21.0418C46.0897 21.2305 46.0231 21.3859 45.9232 21.5079C45.8234 21.63 45.7124 21.7299 45.5681 21.7854C45.4238 21.852 45.2463 21.8853 45.0243 21.8853C44.758 21.8853 44.5471 21.852 44.3695 21.7743C44.2031 21.6966 44.0588 21.5634 43.9367 21.3637C43.8146 21.175 43.748 20.9197 43.748 20.6201C43.748 20.2206 43.859 19.9098 44.0699 19.6878C44.2807 19.4659 44.5915 19.366 44.9799 19.366C45.2907 19.366 45.5237 19.4326 45.7013 19.5547C45.8788 19.6768 46.012 19.8654 46.0897 20.1318L45.4238 20.2761C45.4016 20.1984 45.3794 20.1429 45.3461 20.1096C45.3018 20.0541 45.2574 20.0097 45.1908 19.9764C45.1242 19.9431 45.0576 19.932 44.991 19.932C44.8245 19.932 44.6914 19.9986 44.6026 20.1429C44.536 20.2428 44.5027 20.4092 44.5027 20.6201C44.5027 20.8865 44.5471 21.0751 44.6248 21.175C44.7025 21.2749 44.8245 21.3304 44.9688 21.3304C45.1131 21.3304 45.2241 21.286 45.2907 21.2083C45.3794 21.1084 45.4349 20.9974 45.4682 20.8421Z" fill="#225E63"/>
<path d="M46.4004 20.6201C46.4004 20.2206 46.5114 19.9098 46.7334 19.6879C46.9553 19.4659 47.2661 19.3549 47.6657 19.3549C48.0763 19.3549 48.3871 19.4659 48.6091 19.6768C48.8311 19.8987 48.9421 20.1984 48.9421 20.5979C48.9421 20.8864 48.8977 21.1195 48.7978 21.2971C48.6979 21.4746 48.5647 21.6189 48.376 21.7188C48.1984 21.8187 47.9654 21.8742 47.699 21.8742C47.4215 21.8742 47.1995 21.8298 47.0108 21.741C46.8333 21.6522 46.689 21.519 46.5669 21.3193C46.4448 21.1195 46.4004 20.9086 46.4004 20.6201ZM47.1551 20.6201C47.1551 20.8643 47.1995 21.0418 47.2883 21.1528C47.3771 21.2638 47.4992 21.3193 47.6657 21.3193C47.8322 21.3193 47.9543 21.2638 48.043 21.1639C48.1318 21.0529 48.1762 20.8643 48.1762 20.5979C48.1762 20.3648 48.1318 20.1984 48.0319 20.0985C47.9432 19.9875 47.81 19.9431 47.6546 19.9431C47.4992 19.9431 47.3771 19.9986 47.2883 20.1096C47.1995 20.1984 47.1551 20.3759 47.1551 20.6201Z" fill="#225E63"/>
<path d="M49.3308 19.3994H50.3185L50.6959 20.8865L51.0732 19.3994H52.0609V21.8409H51.4394V19.9764L50.9622 21.8409H50.4073L49.9301 19.9764V21.8409H49.3086V19.3994H49.3308Z" fill="#225E63"/>
<path d="M52.5488 19.3994H53.8029C54.0804 19.3994 54.2802 19.4659 54.4133 19.5991C54.5465 19.7323 54.6131 19.9099 54.6131 20.154C54.6131 20.3982 54.5354 20.5979 54.3911 20.7311C54.2469 20.8754 54.0138 20.942 53.7142 20.942H53.3035V21.852H52.5488V19.3994V19.3994ZM53.3035 20.4425H53.4922C53.6365 20.4425 53.7363 20.4204 53.8029 20.3649C53.8584 20.3094 53.8917 20.2539 53.8917 20.1762C53.8917 20.0985 53.8695 20.0319 53.814 19.9764C53.7585 19.9209 53.6698 19.8988 53.5255 19.8988H53.3146V20.4425H53.3035Z" fill="#225E63"/>
<path d="M55.0127 19.3994H55.7674V21.2416H56.9438V21.8409H55.0127V19.3994Z" fill="#225E63"/>
<path d="M57.3213 19.3994H58.076V21.8409H57.3213V19.3994Z" fill="#225E63"/>
<path d="M60.1173 21.4302H59.2628L59.1407 21.8297H58.375L59.2961 19.3882H60.1173L61.0384 21.8297H60.2505L60.1173 21.4302ZM59.9619 20.9086L59.6956 20.0318L59.4293 20.9086H59.9619Z" fill="#225E63"/>
<path d="M61.2725 19.3994H61.9716L62.8927 20.7533V19.3994H63.603V21.8409H62.8927L61.9827 20.498V21.8409H61.2725V19.3994V19.3994Z" fill="#225E63"/>
<path d="M63.9346 19.3994H66.2319V19.9986H65.4661V21.8409H64.7114V19.9986H63.9457V19.3994H63.9346Z" fill="#225E63"/>
<path d="M36.3901 23.117L38.5764 22.4289L37.8662 20.853C37.3446 21.5078 36.823 22.3512 36.3901 23.117ZM35.6466 15.9144L31.3628 6.37021L0 8.14588L8.68969 31.8511L25.4143 26.5795C24.3489 25.048 23.9604 23.228 25.1923 22.3401C26.5685 21.3413 28.6438 22.4955 29.9644 24.1269C31.2407 21.9961 34.8253 17.0353 35.6466 15.9144Z" fill="#225E63"/>
<path d="M30.3867 13.2675C31.6962 13.2675 32.7616 12.2687 32.7616 11.0257C32.7616 9.78274 31.6962 8.78393 30.3867 8.78393C29.0771 8.78393 28.0117 9.78274 28.0117 11.0257C28.0117 12.2576 29.0771 13.2675 30.3867 13.2675ZM28.4445 14.233H32.3288V24.3876H28.4445V14.233Z" fill="#FEFEFE"/>
<path d="M26.5242 17.1962C26.5575 17.2073 26.5797 17.1962 26.5797 17.1629V14.5882C26.5797 14.5549 26.5575 14.5216 26.5242 14.4994C26.5242 14.4994 26.0137 14.1665 24.46 14.0777C24.3823 14.0333 23.0173 14.0222 22.6511 14.0777C16.9911 14.5327 16.7803 18.6278 16.7803 18.8054V19.8042C16.7803 19.9263 16.7803 24.1102 22.6511 24.4764C23.2282 24.5208 24.349 24.4764 24.46 24.4764C25.814 24.4764 26.7462 24.0658 26.7462 24.0658C26.7795 24.0547 26.8017 24.0214 26.8017 23.9881V21.5799C26.8017 21.5466 26.7795 21.5355 26.7573 21.5577C26.7573 21.5577 26.3356 21.8906 24.4933 22.0793C23.9717 22.1348 23.7165 22.1126 23.5278 22.0793C20.9087 21.6354 20.7866 19.7265 20.7866 19.7265C20.7866 19.6932 20.7755 19.6377 20.7755 19.6155V18.8831C20.7755 18.8498 20.7755 18.7943 20.7866 18.7721C20.7866 18.7721 20.9642 16.719 23.5278 16.497H24.4933C25.6142 16.6413 26.5242 17.1962 26.5242 17.1962Z" fill="#FEFEFE"/>
<path d="M5.99316 24.3543C5.99316 24.3876 6.01536 24.4098 6.04865 24.4098H9.83307C9.86637 24.4098 9.88856 24.3876 9.88856 24.3543V21.4023C9.88856 21.369 9.91076 21.3468 9.94405 21.3468C9.94405 21.3468 15.9925 21.7796 15.9925 17.7288C15.9925 14.5215 12.1969 14.1775 10.954 14.233C10.9318 14.233 6.04865 14.233 6.04865 14.233C6.01536 14.233 5.99316 14.2552 5.99316 14.2885V24.3543ZM9.82197 19.0939V16.4415H10.7542C10.7542 16.4415 12.0971 16.497 12.208 17.4181C12.2302 17.4847 12.2302 17.9397 12.208 17.9619C12.0305 19.0384 10.8652 19.0939 10.8652 19.0939H9.82197Z" fill="#FEFEFE"/>
<path d="M30.4969 29.2874C30.8076 29.2874 31.0518 29.2874 31.4513 29.1098C32.8275 28.3885 37.4775 17.0353 42.3829 13.5394C42.4162 13.5172 42.4495 13.484 42.4717 13.4507C42.5049 13.4063 42.5049 13.3619 42.5049 13.3619C42.5049 13.3619 42.5049 13.1288 41.7836 13.1288C37.4221 13.0067 32.883 22.1625 30.4969 25.7804C30.4636 25.8248 30.3082 25.7804 30.3082 25.7804C30.3082 25.7804 28.7101 23.8938 27.3229 23.1724C27.2896 23.1613 27.1342 23.1058 26.9677 23.1169C26.8567 23.1169 26.2131 23.2501 25.9134 23.5609C25.5583 23.9382 25.5694 24.149 25.5694 24.6041C25.5694 24.6374 25.5916 24.7927 25.636 24.8704C25.98 25.4697 27.5226 27.6005 28.7989 28.7769C28.9876 28.9211 29.2872 29.2874 30.4969 29.2874Z" fill="#2BBC5D"/>
<path d="M43.6699 10.1102H47.2989C48.0202 10.1102 48.5973 10.2101 49.0301 10.3988C49.474 10.5985 49.8402 10.876 50.1177 11.2311C50.4062 11.5973 50.6171 12.0191 50.7392 12.4963C50.8723 12.9735 50.9389 13.484 50.9389 14.0278C50.9389 14.8712 50.839 15.526 50.6504 15.9921C50.4617 16.4583 50.1954 16.8467 49.8513 17.1685C49.5073 17.4793 49.1411 17.6901 48.7527 17.8011C48.22 17.9454 47.7317 18.012 47.2989 18.012H43.6699V10.1102V10.1102ZM46.1114 11.897V16.2141H46.7107C47.2212 16.2141 47.5874 16.1586 47.7983 16.0476C48.0091 15.9367 48.1867 15.7369 48.3088 15.4594C48.4308 15.182 48.4974 14.7159 48.4974 14.0833C48.4974 13.2398 48.3642 12.6738 48.0868 12.3631C47.8094 12.0524 47.3655 11.897 46.7218 11.897H46.1114Z" fill="#225E63"/>
<path d="M51.6162 15.4039L53.9467 15.2596C54.0022 15.637 54.1021 15.9255 54.2575 16.1253C54.5127 16.4471 54.8679 16.6025 55.334 16.6025C55.678 16.6025 55.9554 16.5248 56.1441 16.3583C56.3328 16.1919 56.4327 16.0032 56.4327 15.7923C56.4327 15.5926 56.3439 15.4039 56.1663 15.2374C55.9887 15.071 55.567 14.9267 54.9123 14.7824C53.8358 14.5383 53.0811 14.2164 52.615 13.8169C52.1489 13.4174 51.927 12.9069 51.927 12.2854C51.927 11.8747 52.049 11.4974 52.2821 11.1312C52.5151 10.765 52.8703 10.4875 53.3475 10.2766C53.8247 10.0658 54.4683 9.9659 55.2896 9.9659C56.2995 9.9659 57.0763 10.1546 57.5979 10.5319C58.1306 10.9092 58.4414 11.5085 58.5412 12.3298L56.2329 12.4629C56.1663 12.1078 56.0442 11.8526 55.8445 11.6861C55.6447 11.5196 55.3784 11.4419 55.0343 11.4419C54.7458 11.4419 54.5349 11.4974 54.3907 11.6195C54.2464 11.7416 54.1798 11.8858 54.1798 12.0634C54.1798 12.1855 54.2353 12.3076 54.3574 12.4075C54.4683 12.5073 54.7458 12.6072 55.1786 12.696C56.244 12.9291 57.0097 13.1621 57.4758 13.3952C57.942 13.6282 58.2749 13.9279 58.4857 14.2719C58.6966 14.6159 58.7965 15.0155 58.7965 15.4483C58.7965 15.9588 58.6522 16.4249 58.3748 16.8466C58.0973 17.2795 57.6978 17.6013 57.1984 17.8233C56.699 18.0452 56.0553 18.1562 55.2896 18.1562C53.9467 18.1562 53.0145 17.9009 52.4929 17.3793C51.9824 16.8577 51.6939 16.203 51.6162 15.4039Z" fill="#225E63"/>
<path d="M59.4189 15.4039L61.7495 15.2596C61.805 15.637 61.9048 15.9255 62.0602 16.1253C62.3155 16.4471 62.6706 16.6025 63.1367 16.6025C63.4807 16.6025 63.7582 16.5248 63.9468 16.3583C64.1355 16.1919 64.2354 16.0032 64.2354 15.7923C64.2354 15.5926 64.1466 15.4039 63.969 15.2374C63.7915 15.071 63.3698 14.9267 62.715 14.7824C61.6385 14.5383 60.8839 14.2164 60.4177 13.8169C59.9627 13.4174 59.7297 12.9069 59.7297 12.2854C59.7297 11.8747 59.8518 11.4974 60.0848 11.1312C60.3179 10.765 60.673 10.4875 61.1502 10.2766C61.6274 10.0658 62.2711 9.9659 63.0923 9.9659C64.1022 9.9659 64.8791 10.1546 65.4006 10.5319C65.9333 10.9092 66.2441 11.5085 66.344 12.3298L64.0356 12.4629C63.969 12.1078 63.847 11.8526 63.6472 11.6861C63.4474 11.5196 63.1811 11.4419 62.8371 11.4419C62.5485 11.4419 62.3377 11.4974 62.1934 11.6195C62.0491 11.7416 61.9825 11.8858 61.9825 12.0634C61.9825 12.1855 62.038 12.3076 62.1601 12.4075C62.2711 12.5073 62.5485 12.6072 62.9813 12.696C64.0467 12.9291 64.8125 13.1621 65.2786 13.3952C65.7447 13.6282 66.0776 13.9279 66.2885 14.2719C66.4993 14.6159 66.5992 15.0155 66.5992 15.4483C66.5992 15.9588 66.4549 16.4249 66.1775 16.8466C65.9 17.2795 65.5005 17.6013 65.0011 17.8233C64.5017 18.0452 63.8581 18.1562 63.0923 18.1562C61.7495 18.1562 60.8173 17.9009 60.2957 17.3793C59.7741 16.8577 59.4855 16.203 59.4189 15.4039Z" fill="#225E63"/>
</svg>

<svg width="69" height="39" viewBox="0 0 69 39" fill="none" xmlns="http://www.w3.org/2000/svg"><path d="M45.468 20.842l.666.2a1.129 1.129 0 01-.21.466.862.862 0 01-.356.277 1.28 1.28 0 01-.544.1c-.266 0-.477-.033-.654-.11a1.015 1.015 0 01-.433-.411c-.122-.189-.189-.444-.189-.744 0-.4.111-.71.322-.932.21-.222.522-.322.91-.322.31 0 .544.067.721.189.178.122.311.31.389.577l-.666.144a.388.388 0 00-.078-.166.45.45 0 00-.155-.134.435.435 0 00-.2-.044c-.166 0-.3.067-.388.21-.067.1-.1.267-.1.478 0 .267.044.455.122.555.078.1.2.155.344.155.144 0 .255-.044.322-.122.088-.1.144-.21.177-.366zm.932-.222c0-.4.111-.71.333-.932.222-.222.533-.333.933-.333.41 0 .721.11.943.322.222.222.333.521.333.92 0 .29-.044.522-.144.7a1.03 1.03 0 01-.422.422c-.178.1-.41.155-.677.155-.277 0-.5-.044-.688-.133a1.074 1.074 0 01-.444-.422c-.122-.2-.167-.41-.167-.699zm.755 0c0 .244.044.422.133.533a.45.45 0 00.378.166.476.476 0 00.377-.155c.089-.111.133-.3.133-.566 0-.233-.044-.4-.144-.5-.089-.11-.222-.155-.377-.155a.443.443 0 00-.367.167c-.088.088-.133.266-.133.51zm2.175-1.22h.989l.377 1.487.377-1.488h.988v2.442h-.622v-1.865l-.477 1.865h-.555l-.477-1.865v1.865h-.621v-2.442h.022zm3.219 0h1.254c.277 0 .477.066.61.2.134.132.2.31.2.554 0 .244-.078.444-.222.577-.144.144-.377.211-.677.211h-.41v.91h-.755v-2.453zm.755 1.043h.188c.145 0 .244-.023.31-.078.056-.056.09-.111.09-.189a.267.267 0 00-.078-.2c-.056-.055-.144-.077-.288-.077h-.211v.543h-.011zm1.709-1.043h.754v1.842h1.177v.599h-1.931v-2.442zm2.308 0h.755v2.44h-.755V19.4zm2.796 2.03h-.854l-.122.4h-.766l.921-2.442h.821l.921 2.442h-.787l-.134-.4zm-.155-.521l-.266-.877-.267.877h.533zm1.311-1.509h.699l.92 1.353V19.4h.711v2.442h-.71l-.91-1.343v1.343h-.71V19.4zm2.662 0h2.297v.599h-.766v1.842h-.755v-1.842h-.765v-.6h-.011zM36.39 23.117l2.186-.688-.71-1.576c-.521.655-1.043 1.498-1.476 2.264zm-.743-7.203L31.363 6.37 0 8.146 8.69 31.85l16.724-5.271c-1.065-1.532-1.454-3.352-.222-4.24 1.377-.999 3.452.155 4.772 1.787 1.277-2.13 4.861-7.092 5.683-8.213z" fill="#225E63"/><path d="M30.387 13.268c1.31 0 2.375-1 2.375-2.242 0-1.243-1.066-2.242-2.375-2.242-1.31 0-2.375.999-2.375 2.242 0 1.232 1.065 2.242 2.375 2.242zm-1.942.965h3.884v10.155h-3.884V14.233zm-1.921 2.963c.034.011.056 0 .056-.033v-2.575c0-.033-.022-.066-.056-.089 0 0-.51-.333-2.064-.421-.078-.045-1.443-.056-1.809 0-5.66.455-5.87 4.55-5.87 4.727v1c0 .121 0 4.305 5.87 4.671.577.045 1.698 0 1.809 0 1.354 0 2.286-.41 2.286-.41a.083.083 0 00.056-.078V21.58c0-.033-.023-.044-.045-.022 0 0-.421.333-2.264.521-.521.056-.776.034-.965 0-2.62-.444-2.741-2.352-2.741-2.352 0-.034-.011-.09-.011-.111v-.733c0-.033 0-.089.01-.11 0 0 .178-2.054 2.742-2.276h.965c1.121.144 2.031.7 2.031.7zM5.993 24.354c0 .034.022.056.056.056h3.784c.033 0 .056-.022.056-.056v-2.952c0-.033.022-.055.055-.055 0 0 6.048.433 6.048-3.618 0-3.207-3.795-3.551-5.038-3.496H6.049c-.034 0-.056.022-.056.056v10.065zm3.829-5.26v-2.652h.932s1.343.055 1.454.976c.022.067.022.522 0 .544-.178 1.076-1.343 1.132-1.343 1.132H9.822z" fill="#FEFEFE"/><path d="M30.497 29.287c.31 0 .555 0 .954-.177 1.377-.721 6.026-12.075 10.932-15.57a.337.337 0 00.089-.09c.033-.044.033-.088.033-.088s0-.233-.721-.233c-4.362-.122-8.901 9.034-11.287 12.651-.033.045-.189 0-.189 0s-1.598-1.886-2.985-2.608c-.033-.01-.189-.066-.355-.055-.111 0-.755.133-1.055.444-.355.377-.344.588-.344 1.043 0 .033.023.189.067.266.344.6 1.887 2.73 3.163 3.907.189.144.488.51 1.698.51z" fill="#2BBC5D"/><path d="M43.67 10.11h3.629c.721 0 1.298.1 1.731.289.444.2.81.477 1.088.832.288.366.5.788.621 1.265.133.477.2.988.2 1.532 0 .843-.1 1.498-.289 1.964a3.254 3.254 0 01-.799 1.177c-.344.31-.71.521-1.098.632a5.603 5.603 0 01-1.454.211h-3.63V10.11zm2.441 1.787v4.317h.6c.51 0 .876-.055 1.087-.166.211-.111.389-.311.51-.589.123-.277.19-.743.19-1.376 0-.843-.134-1.41-.411-1.72-.278-.31-.722-.466-1.365-.466h-.61zm5.505 3.507l2.33-.144c.056.377.156.665.312.865.255.322.61.477 1.076.477.344 0 .621-.077.81-.244.189-.166.289-.355.289-.566 0-.2-.09-.388-.267-.555-.177-.166-.599-.31-1.254-.455-1.076-.244-1.83-.566-2.297-.965-.466-.4-.688-.91-.688-1.532 0-.41.122-.788.355-1.154.233-.366.588-.643 1.066-.854.477-.211 1.12-.311 1.942-.311 1.01 0 1.786.189 2.308.566.533.377.843.976.943 1.798l-2.308.133c-.067-.355-.189-.61-.389-.777-.2-.166-.466-.244-.81-.244-.288 0-.5.055-.643.178a.551.551 0 00-.211.443c0 .122.055.245.177.345.111.1.389.2.822.288 1.065.233 1.83.466 2.297.7.466.232.799.532 1.01.876.21.344.31.743.31 1.176 0 .51-.144.977-.421 1.399-.278.432-.677.754-1.177.976-.499.222-1.143.333-1.908.333-1.343 0-2.276-.255-2.797-.777-.51-.521-.8-1.176-.877-1.975zm7.803 0l2.33-.144c.056.377.156.665.311.865.255.322.61.477 1.077.477.344 0 .621-.077.81-.244.188-.166.288-.355.288-.566 0-.2-.088-.388-.266-.555-.178-.166-.6-.31-1.254-.455-1.077-.244-1.831-.566-2.297-.965-.455-.4-.688-.91-.688-1.532 0-.41.122-.788.355-1.154.233-.366.588-.643 1.065-.854.477-.211 1.121-.311 1.942-.311 1.01 0 1.787.189 2.309.566.532.377.843.976.943 1.798l-2.308.133c-.067-.355-.189-.61-.389-.777-.2-.166-.466-.244-.81-.244-.289 0-.5.055-.644.178a.551.551 0 00-.21.443c0 .122.055.245.177.345.111.1.389.2.821.288 1.066.233 1.831.466 2.298.7.466.232.799.532 1.01.876.21.344.31.743.31 1.176 0 .51-.144.977-.422 1.399-.277.432-.677.754-1.176.976-.5.222-1.143.333-1.909.333-1.343 0-2.275-.255-2.796-.777-.522-.521-.81-1.176-.877-1.975z" fill="#225E63"/></svg>
